X:1
T:The Earl's Chair
C:Pato (Packie) Maloney
I:tune composed Pato (Packie) Maloney of Woodford, Co Galway,
I:an uncle of Mike Rafferty (http://www.thesession.org/tunes/display/221)
Z:Gwen 2019-05-25 ~ version de la leçon de Cillian O'Dalaigh
M:4/4
L:1/8
Q:1/2=80
R:Reel
K:Dmaj
|: B2dB BAFA | B2dB BAFB | AFF/F/F DFF/F/F | AFdB ADFA |
   B2dB BAFA | B2dB BAFB | AFAB defd | edef d2cd :|
|: e2ef d2df | edef dBA2 | e2ef dcde | fedB ADFA |
   e2ef dBB/B/B | gBB/B/B defg | afbf afeg | fedB ADFA :|

